SVG_Azure_All/Free Services.svg

<?xml version="1.0" encoding="UTF-8" standalone="no"?>
<!-- Generated by Microsoft Visio, SVG Export Free Services.svg Page-1 -->

<svg
   xmlns:dc="http://purl.org/dc/elements/1.1/"
   xmlns:cc="http://creativecommons.org/ns#"
   xmlns:rdf="http://www.w3.org/1999/02/22-rdf-syntax-ns#"
   xmlns:svg="http://www.w3.org/2000/svg"
   xmlns="http://www.w3.org/2000/svg"
   xmlns:sodipodi="http://sodipodi.sourceforge.net/DTD/sodipodi-0.dtd"
   xmlns:inkscape="http://www.inkscape.org/namespaces/inkscape"
   width="0.78668123in"
   height="0.70861447in"
   viewBox="0 0 56.641047 51.020049"
   xml:space="preserve"
   class="st10"
   version="1.1"
   id="svg69"
   sodipodi:docname="Free Services.svg"
   style="font-size:12px;overflow:visible;color-interpolation-filters:sRGB;fill:none;fill-rule:evenodd;stroke-linecap:square;stroke-miterlimit:3"
   inkscape:version="0.92.5 (2060ec1f9f, 2020-04-08)"><metadata
   id="metadata75"><rdf:RDF><cc:Work
       rdf:about=""><dc:format>image/svg+xml</dc:format><dc:type
         rdf:resource="http://purl.org/dc/dcmitype/StillImage" /></cc:Work></rdf:RDF></metadata><defs
   id="defs73" /><sodipodi:namedview
   pagecolor="#ffffff"
   bordercolor="#666666"
   borderopacity="1"
   objecttolerance="10"
   gridtolerance="10"
   guidetolerance="10"
   inkscape:pageopacity="0"
   inkscape:pageshadow="2"
   inkscape:window-width="640"
   inkscape:window-height="480"
   id="namedview71"
   showgrid="false"
   inkscape:zoom="1.9588001"
   inkscape:cx="37.795281"
   inkscape:cy="14.886517"
   inkscape:window-x="0"
   inkscape:window-y="0"
   inkscape:window-maximized="0"
   inkscape:current-layer="svg69" />
	<style
   type="text/css"
   id="style2">
	<![CDATA[
		.st1 {fill:#7a7a7a;stroke:none;stroke-linecap:butt;stroke-width:5.32174}
		.st2 {fill:#a0a1a2;stroke:none;stroke-linecap:butt;stroke-width:5.32174}
		.st3 {fill:#ffffff;fill-opacity:0.2;stroke:none;stroke-linecap:butt;stroke-width:5.32174}
		.st4 {fill:#59b4d9;stroke:none;stroke-linecap:butt;stroke-width:5.32174}
		.st5 {fill:#b8d432;stroke:none;stroke-linecap:butt;stroke-width:5.32174}
		.st6 {fill:#ffffff;stroke:none;stroke-linecap:butt;stroke-width:5.32174}
		.st7 {fill:#ffffff;fill-opacity:0.7;stroke:none;stroke-linecap:butt;stroke-width:5.32174}
		.st8 {fill:#ffffff;fill-opacity:0.4;stroke:none;stroke-linecap:butt;stroke-width:5.32174}
		.st9 {fill:#ba141a;stroke:none;stroke-linecap:butt;stroke-width:5.32174}
		.st10 {fill:none;fill-rule:evenodd;font-size:12px;overflow:visible;stroke-linecap:square;stroke-miterlimit:3}
	]]>
	</style>

	<g
   id="g67"
   transform="translate(-5.66929,-5.3253669)">
		<title
   id="title4">Page-1</title>
		<g
   id="group4532-1"
   transform="translate(5.66929,-34.0157)">
			<title
   id="title6">Free Services</title>
			<g
   id="group4533-2">
				<title
   id="title8">g26</title>
				<g
   id="shape4534-3"
   transform="translate(9.87348)">
					<title
   id="title10">path4</title>
					<path
   d="M 26.91,79.74 H 10.35 c 1.86,6.37 0.53,7.31 -10.35,7.31 v 3.31 h 37.05 v -3.31 c -10.93,0 -11.99,-0.94 -10.14,-7.31 z"
   class="st1"
   id="path12"
   inkscape:connector-curvature="0"
   style="fill:#7a7a7a;stroke:none;stroke-width:5.32174015;stroke-linecap:butt" />
				</g>
				<g
   id="shape4535-5"
   transform="translate(0,-10.6191)">
					<title
   id="title15">path6</title>
					<path
   d="M 53.24,49.96 H 3.08 C 1.38,49.96 0,51.46 0,53.12 v 34.13 c 0,1.66 1.38,3.11 3.08,3.11 h 50.16 c 1.7,0 3.4,-1.45 3.4,-3.11 V 53.12 c 0.05,-1.66 -1.7,-3.16 -3.4,-3.16 z"
   class="st2"
   id="path17"
   inkscape:connector-curvature="0"
   style="fill:#a0a1a2;stroke:none;stroke-width:5.32174015;stroke-linecap:butt" />
				</g>
				<g
   id="shape4536-7"
   transform="translate(0,-10.6191)">
					<title
   id="title20">path8</title>
					<path
   d="M 53.3,49.96 H 3.08 C 1.38,49.96 0,51.46 0,53.12 v 34.13 c 0,1.66 1.38,3.11 3.08,3.11 h 1.17 z"
   class="st3"
   id="path22"
   inkscape:connector-curvature="0"
   style="fill:#ffffff;fill-opacity:0.2;stroke:none;stroke-width:5.32174015;stroke-linecap:butt" />
				</g>
				<g
   id="shape4537-9"
   transform="translate(4.29974,-14.8668)">
					<title
   id="title25">path10</title>
					<rect
   x="0"
   y="58.4519"
   width="47.987301"
   height="31.909201"
   class="st4"
   id="rect27"
   style="fill:#59b4d9;stroke:none;stroke-width:5.32174015;stroke-linecap:butt" />
				</g>
				<g
   id="shape4538-11"
   transform="translate(4.29974,-14.8668)">
					<title
   id="title30">path12</title>
					<path
   d="M 0,90.36 H 0.11 V 58.45 L 43.9,58.4 0,58.45 Z"
   class="st4"
   id="path32"
   inkscape:connector-curvature="0"
   style="fill:#59b4d9;stroke:none;stroke-width:5.32174015;stroke-linecap:butt" />
				</g>
				<g
   id="shape4539-13"
   transform="translate(9.8204)">
					<title
   id="title35">path14</title>
					<rect
   x="0"
   y="87.045898"
   width="37.052101"
   height="3.3152399"
   class="st2"
   id="rect37"
   style="fill:#a0a1a2;stroke:none;stroke-width:5.32174015;stroke-linecap:butt" />
				</g>
				<g
   id="shape4540-15"
   transform="translate(27.3379,-47.9156)">
					<title
   id="title40">path16</title>
					<path
   d="M 1.59,89.58 C 1.59,90 1.22,90.36 0.8,90.36 0.37,90.36 0,90 0,89.58 c 0,-0.41 0.37,-0.77 0.8,-0.77 0.42,0 0.79,0.36 0.79,0.77 z"
   class="st5"
   id="path42"
   inkscape:connector-curvature="0"
   style="fill:#b8d432;stroke:none;stroke-width:5.32174015;stroke-linecap:butt" />
				</g>
				<g
   id="shape4541-17"
   transform="translate(21.0741,-25.7449)">
					<title
   id="title45">path18</title>
					<path
   d="m 7.33,90.36 c -0.06,0 -0.06,0 -0.11,-0.05 L 0.11,86.32 C 0.05,86.27 0,86.22 0,86.11 0,86.06 0.05,85.96 0.11,85.96 l 7.06,-3.99 c 0.05,-0.05 0.16,-0.05 0.21,0 l 7.11,3.99 c 0.05,0.05 0.11,0.1 0.11,0.15 0,0.06 -0.06,0.16 -0.11,0.16 l -7.06,3.99 z"
   class="st6"
   id="path47"
   inkscape:connector-curvature="0"
   style="fill:#ffffff;stroke:none;stroke-width:5.32174015;stroke-linecap:butt" />
				</g>
				<g
   id="shape4542-19"
   transform="translate(20.0655,-16.0582)">
					<title
   id="title50">path20</title>
					<path
   d="m 7.27,90.36 c -0.05,0 -0.05,0 -0.1,-0.05 L 0.11,86.32 C 0.05,86.27 0,86.22 0,86.11 v -7.92 c 0,-0.05 0.05,-0.16 0.11,-0.21 0.05,-0.05 0.16,-0.05 0.21,0 l 7.06,3.99 c 0.05,0.05 0.1,0.1 0.1,0.21 v 7.97 c 0,0.06 -0.05,0.16 -0.1,0.21 z"
   class="st7"
   id="path52"
   inkscape:connector-curvature="0"
   style="fill:#ffffff;fill-opacity:0.7;stroke:none;stroke-width:5.32174015;stroke-linecap:butt" />
				</g>
				<g
   id="shape4543-21"
   transform="translate(29.1427,-16.0582)">
					<title
   id="title55">path22</title>
					<path
   d="m 0.21,90.36 c -0.05,0 -0.05,0 -0.1,-0.05 C 0.05,90.26 0,90.21 0,90.1 v -7.87 c 0,-0.05 0.05,-0.16 0.11,-0.21 l 7.06,-3.99 c 0.05,-0.05 0.16,-0.05 0.21,0 0.05,0.05 0.1,0.11 0.1,0.16 v 7.92 c 0,0.06 -0.05,0.16 -0.1,0.21 l -7.06,3.99 c 0,0.05 -0.05,0.05 -0.11,0.05 z"
   class="st8"
   id="path57"
   inkscape:connector-curvature="0"
   style="fill:#ffffff;fill-opacity:0.4;stroke:none;stroke-width:5.32174015;stroke-linecap:butt" />
				</g>
				<g
   id="shape4544-23"
   transform="translate(14.4917,-29.63)">
					<title
   id="title60">path24</title>
					<path
   d="m 4.57,73.63 c 9.66,6.63 9.39,15.33 9.39,15.33 0,0 -2.65,-8.29 -13.96,-11.7 l 6.05,0.15 z m 16.93,4.2 c -7.65,4.4 -8.12,11.34 -8.12,11.34 0,0 2.6,-6.48 11.3,-8.34 L 20.12,80.62 Z M 13.91,88.08 C 13.8,87.93 11.63,84.71 7.86,83.21 5.41,82.28 3.56,81.97 2.28,82.44 c -0.69,0.25 -1.17,0.67 -1.43,1.29 -0.43,1.04 -0.37,3.06 4.67,5.03 3.77,1.5 7.64,0.62 7.8,0.57 l 1.12,-0.42 z M 7.22,84.77 c 2.02,0.77 3.56,2.17 4.41,3.16 -1.33,0.1 -3.4,0.1 -5.42,-0.73 -2.92,-1.14 -3.98,-2.33 -3.77,-2.9 0.05,-0.1 0.11,-0.26 0.43,-0.31 0.37,-0.16 1.59,-0.31 4.35,0.78 z m 7.11,4.4 c 0.16,0.05 3.93,1.19 7.86,0.05 2.49,-0.78 4.14,-1.71 4.83,-2.8 0.37,-0.62 0.48,-1.24 0.26,-1.86 -0.31,-1.09 -1.69,-2.59 -6.9,-1.04 -3.87,1.19 -6.37,4.25 -6.47,4.35 l -0.69,0.89 z m 7.38,-1.55 c -2.07,0.62 -4.14,0.46 -5.47,0.25 0.96,-0.88 2.6,-2.17 4.67,-2.79 3.03,-0.93 4.57,-0.68 4.78,-0.05 0.06,0.1 0.06,0.25 -0.1,0.51 -0.22,0.31 -1.01,1.2 -3.88,2.08 z"
   class="st9"
   id="path62"
   inkscape:connector-curvature="0"
   style="fill:#ba141a;stroke:none;stroke-width:5.32174015;stroke-linecap:butt" />
				</g>
			</g>
		</g>
	</g>
</svg>

<?xml version="1.0" encoding="UTF-8" standalone="no"?>
<!DOCTYPE svg PUBLIC "-//W3C//DTD SVG 1.1//EN" "http://www.w3.org/Graphics/SVG/1.1/DTD/svg11.dtd">
<!-- Generated by Microsoft Visio, SVG Export Free Services.svg Page-1 -->
<svg xmlns="http://www.w3.org/2000/svg" xmlns:xlink="http://www.w3.org/1999/xlink" xmlns:ev="http://www.w3.org/2001/xml-events"
		width="0.944882in" height="1.25502in" viewBox="0 0 68.0315 90.3611" xml:space="preserve" color-interpolation-filters="sRGB"
		class="st10">
	<style type="text/css">
	<![CDATA[
		.st1 {fill:#7a7a7a;stroke:none;stroke-linecap:butt;stroke-width:5.32174}
		.st2 {fill:#a0a1a2;stroke:none;stroke-linecap:butt;stroke-width:5.32174}
		.st3 {fill:#ffffff;fill-opacity:0.2;stroke:none;stroke-linecap:butt;stroke-width:5.32174}
		.st4 {fill:#59b4d9;stroke:none;stroke-linecap:butt;stroke-width:5.32174}
		.st5 {fill:#b8d432;stroke:none;stroke-linecap:butt;stroke-width:5.32174}
		.st6 {fill:#ffffff;stroke:none;stroke-linecap:butt;stroke-width:5.32174}
		.st7 {fill:#ffffff;fill-opacity:0.7;stroke:none;stroke-linecap:butt;stroke-width:5.32174}
		.st8 {fill:#ffffff;fill-opacity:0.4;stroke:none;stroke-linecap:butt;stroke-width:5.32174}
		.st9 {fill:#ba141a;stroke:none;stroke-linecap:butt;stroke-width:5.32174}
		.st10 {fill:none;fill-rule:evenodd;font-size:12px;overflow:visible;stroke-linecap:square;stroke-miterlimit:3}
	]]>
	</style>

	<g>
		<title>Page-1</title>
		<g id="group4435-1" transform="translate(5.66929,-34.0157)">
			<title>Free Services</title>
			<g id="group4436-2">
				<title>g26</title>
				<g id="shape4437-3" transform="translate(9.87348,2.55795E-13)">
					<title>path4</title>
					<path d="M26.91 79.74 L10.35 79.74 C12.21 86.11 10.88 87.05 0 87.05 L0 90.36 L37.05 90.36 L37.05 87.05 C26.12
								 87.05 25.06 86.11 26.91 79.74 Z" class="st1"/>
				</g>
				<g id="shape4438-5" transform="translate(0,-10.6191)">
					<title>path6</title>
					<path d="M53.24 49.96 L3.08 49.96 C1.38 49.96 0 51.46 0 53.12 L0 87.25 C0 88.91 1.38 90.36 3.08 90.36 L53.24
								 90.36 C54.94 90.36 56.64 88.91 56.64 87.25 L56.64 53.12 C56.69 51.46 54.94 49.96 53.24 49.96 Z"
							class="st2"/>
				</g>
				<g id="shape4439-7" transform="translate(0,-10.6191)">
					<title>path8</title>
					<path d="M53.3 49.96 L3.08 49.96 C1.38 49.96 0 51.46 0 53.12 L0 87.25 C0 88.91 1.38 90.36 3.08 90.36 L4.25 90.36
								 L53.3 49.96 Z" class="st3"/>
				</g>
				<g id="shape4440-9" transform="translate(4.29974,-14.8668)">
					<title>path10</title>
					<rect x="0" y="58.4519" width="47.9873" height="31.9092" class="st4"/>
				</g>
				<g id="shape4441-11" transform="translate(4.29974,-14.8668)">
					<title>path12</title>
					<path d="M0 90.36 L0.11 90.36 L0.11 58.45 L43.9 58.4 L0 58.45 L0 90.36 Z" class="st4"/>
				</g>
				<g id="shape4442-13" transform="translate(9.8204,0)">
					<title>path14</title>
					<rect x="0" y="87.0459" width="37.0521" height="3.31524" class="st2"/>
				</g>
				<g id="shape4443-15" transform="translate(27.3379,-47.9156)">
					<title>path16</title>
					<path d="M1.59 89.58 C1.59 90 1.22 90.36 0.8 90.36 C0.37 90.36 0 90 0 89.58 C0 89.17 0.37 88.81 0.8 88.81 C1.22
								 88.81 1.59 89.17 1.59 89.58 Z" class="st5"/>
				</g>
				<g id="shape4444-17" transform="translate(21.0741,-25.7449)">
					<title>path18</title>
					<path d="M7.33 90.36 C7.27 90.36 7.27 90.36 7.22 90.31 L0.11 86.32 C0.05 86.27 0 86.22 0 86.11 C0 86.06 0.05
								 85.96 0.11 85.96 L7.17 81.97 C7.22 81.92 7.33 81.92 7.38 81.97 L14.49 85.96 C14.54 86.01 14.6 86.06
								 14.6 86.11 C14.6 86.17 14.54 86.27 14.49 86.27 L7.43 90.26 L7.33 90.36 Z" class="st6"/>
				</g>
				<g id="shape4445-19" transform="translate(20.0655,-16.0582)">
					<title>path20</title>
					<path d="M7.27 90.36 C7.22 90.36 7.22 90.36 7.17 90.31 L0.11 86.32 C0.05 86.27 0 86.22 0 86.11 L0 78.19 C0 78.14
								 0.05 78.03 0.11 77.98 C0.16 77.93 0.27 77.93 0.32 77.98 L7.38 81.97 C7.43 82.02 7.48 82.07 7.48
								 82.18 L7.48 90.15 C7.48 90.21 7.43 90.31 7.38 90.36 L7.27 90.36 Z" class="st7"/>
				</g>
				<g id="shape4446-21" transform="translate(29.1427,-16.0582)">
					<title>path22</title>
					<path d="M0.21 90.36 C0.16 90.36 0.16 90.36 0.11 90.31 C0.05 90.26 0 90.21 0 90.1 L0 82.23 C0 82.18 0.05 82.07
								 0.11 82.02 L7.17 78.03 C7.22 77.98 7.33 77.98 7.38 78.03 C7.43 78.08 7.48 78.14 7.48 78.19 L7.48
								 86.11 C7.48 86.17 7.43 86.27 7.38 86.32 L0.32 90.31 C0.32 90.36 0.27 90.36 0.21 90.36 Z"
							class="st8"/>
				</g>
				<g id="shape4447-23" transform="translate(14.4917,-29.63)">
					<title>path24</title>
					<path d="M4.57 73.63 C14.23 80.26 13.96 88.96 13.96 88.96 C13.96 88.96 11.31 80.67 0 77.26 L6.05 77.41 L4.57
								 73.63 ZM21.5 77.83 C13.85 82.23 13.38 89.17 13.38 89.17 C13.38 89.17 15.98 82.69 24.68 80.83 L20.12
								 80.62 L21.5 77.83 ZM13.91 88.08 C13.8 87.93 11.63 84.71 7.86 83.21 C5.41 82.28 3.56 81.97 2.28 82.44
								 C1.59 82.69 1.11 83.11 0.85 83.73 C0.42 84.77 0.48 86.79 5.52 88.76 C9.29 90.26 13.16 89.38 13.32
								 89.33 L14.44 88.91 L13.91 88.08 ZM7.22 84.77 C9.24 85.54 10.78 86.94 11.63 87.93 C10.3 88.03 8.23
								 88.03 6.21 87.2 C3.29 86.06 2.23 84.87 2.44 84.3 C2.49 84.2 2.55 84.04 2.87 83.99 C3.24 83.83 4.46
								 83.68 7.22 84.77 ZM14.33 89.17 C14.49 89.22 18.26 90.36 22.19 89.22 C24.68 88.44 26.33 87.51 27.02
								 86.42 C27.39 85.8 27.5 85.18 27.28 84.56 C26.97 83.47 25.59 81.97 20.38 83.52 C16.51 84.71 14.01
								 87.77 13.91 87.87 L13.22 88.76 L14.33 89.17 ZM21.71 87.62 C19.64 88.24 17.57 88.08 16.24 87.87 C17.2
								 86.99 18.84 85.7 20.91 85.08 C23.94 84.15 25.48 84.4 25.69 85.03 C25.75 85.13 25.75 85.28 25.59
								 85.54 C25.37 85.85 24.58 86.74 21.71 87.62 Z" class="st9"/>
				</g>
			</g>
		</g>
	</g>
</svg>
